X:2814
T:Il passo del bosco (M.Martinotti) - Mazurca
O:england
C:La Ciapa Rusa: Retanavota 9a
M:3/4
L:1/8
K:G
~DG BA ~GE|B6|~DG BA ~GE|c4-cc|\
cA Fc EA|~D4 (3EFE|1 DE FG AG|BA G4:|
|2 Dc AF (3cAF|G2G2z2\
|:DE FD (3EFA|BG DB GD|BG EB (3BGE|~C6|
(3A,B,C (3DEC (3ECA,|AF DA FD|1CD FD CD|\
~B,6:|2 ~cA FD/E/ F/G/A|G2G2z2||


